X: 9728
T: Deildy Aberteifi
R: jig
M: 6/8
K: Dmajor
dfe dAF|dfe dAF|Gee Gee|Ged cBA|
dfe dAF|dfe dAF|Gee Ged|cBc d3:|
fdf ecA|fdf ecA|Bcd efg|afd e2 ^e|
fdf ecA|fdf ecA|Bcd efg|ABc d2||

